coreui/flag/cif-ck.svg

<svg xmlns="http://www.w3.org/2000/svg" width="400" height="200" viewBox="0 0 300 150">
  <defs>
    <clipPath id="a">
      <path d="M 0 0 L 150 0 L 150 75 L 0 75 Z M 0 0"/>
    </clipPath>
    <clipPath id="b">
      <path d="M 0 0 L 0 37.5 L 200 37.5 L 200 100 Z M 150 0 L 75 0 L 75 100 L -50 100 Z M 150 0"/>
    </clipPath>
    <clipPath id="c">
      <path d="M 0 0 L 200 0 L 200 100 L 0 100 Z M 0 0"/>
    </clipPath>
    <clipPath id="d">
      <path d="M 0 0 L 0 37.5 L 200 37.5 L 200 100 Z M 150 0 L 75 0 L 75 100 L -50 100 Z M 150 0"/>
    </clipPath>
  </defs>
  <rect width="300" height="150" fill="#012169"/>
  <path fill="#012169" stroke="#fff" stroke-width=".6" d="M 0 0 L 6 3 M 0 3 L 6 0" transform="scale(25)"/>
  <g clip-path="url(#a)">
    <g clip-path="url(#b)">
      <path fill="#012169" d="M 0 0 L 150 75 M 0 75 L 150 0"/>
    </g>
  </g>
  <g clip-path="url(#c)">
    <g clip-path="url(#d)">
      <path fill="none" stroke="#c8102e" stroke-width=".4" d="M 0 0 L 6 3 M 0 3 L 6 0" transform="scale(25)"/>
    </g>
  </g>
  <path fill="#012169" stroke="#fff" d="M 3 0 L 3 4 M 0 1.5 L 7 1.5" transform="scale(25)"/>
  <path fill="#012169" stroke="#c8102e" stroke-width=".6" d="M 3 0 L 3 4 M 0 1.5 L 7 1.5" transform="scale(25)"/>
  <path fill="#012169" d="M 0 75 L 150 75 L 150 0 L 300 0 L 300 150 L 0 150 Z M 0 75"/>
  <path fill="#fff" d="M 225 12.75 L 227.53125 20.53125 L 235.6875 20.53125 L 229.09375 25.3125 L 231.625 33.09375 L 225 28.3125 L 218.375 33.09375 L 220.90625 25.3125 L 214.3125 20.53125 L 222.46875 20.53125 Z M 225 12.75"/>
  <path fill="#fff" d="M 250.320312 18.132812 L 249.46875 26.269531 L 256.917969 29.585938 L 248.949219 31.273438 L 248.097656 39.410156 L 243.988281 32.347656 L 235.992188 34.023438 L 241.46875 27.941406 L 237.390625 20.894531 L 244.84375 24.210938 Z M 250.320312 18.132812"/>
  <path fill="#fff" d="M 271.261719 33.347656 L 267.171875 40.433594 L 272.628906 46.496094 L 264.664062 44.792969 L 260.574219 51.882812 L 259.695312 43.761719 L 251.710938 42.035156 L 259.1875 38.710938 L 258.328125 30.609375 L 263.785156 36.671875 Z M 271.261719 33.347656"/>
  <path fill="#fff" d="M 284.203125 55.765625 L 277.585938 60.574219 L 280.105469 68.332031 L 273.519531 63.539062 L 266.902344 68.351562 L 269.402344 60.574219 L 262.808594 55.75 L 270.992188 55.753906 L 273.5 48.003906 L 276.019531 55.761719 Z M 284.203125 55.765625"/>
  <path fill="#fff" d="M 286.910156 81.507812 L 278.90625 83.210938 L 278.054688 91.324219 L 273.988281 84.265625 L 265.984375 85.96875 L 271.433594 79.878906 L 267.371094 72.792969 L 274.84375 76.121094 L 280.289062 70.066406 L 279.433594 78.175781 Z M 286.910156 81.507812"/>
  <path fill="#fff" d="M 278.910156 106.125 L 270.90625 104.425781 L 266.828125 111.488281 L 265.984375 103.390625 L 257.980469 101.691406 L 265.433594 98.34375 L 264.605469 90.214844 L 270.078125 96.296875 L 277.515625 92.980469 L 273.4375 100.042969 Z M 278.910156 106.125"/>
  <path fill="#fff" d="M 261.589844 125.359375 L 254.96875 120.554688 L 248.371094 125.347656 L 250.894531 117.605469 L 244.273438 112.796875 L 252.441406 112.769531 L 254.992188 105.007812 L 257.515625 112.792969 L 265.664062 112.785156 L 259.0625 117.578125 Z M 261.589844 125.359375"/>
  <path fill="#fff" d="M 237.941406 135.890625 L 233.847656 128.804688 L 225.871094 130.5 L 231.328125 124.453125 L 227.234375 117.367188 L 234.707031 120.667969 L 240.191406 114.613281 L 239.335938 122.75 L 246.777344 126.054688 L 238.800781 127.753906 Z M 237.941406 135.890625"/>
  <path fill="#fff" d="M 212.058594 135.890625 L 211.199219 127.753906 L 203.222656 126.054688 L 210.664062 122.75 L 209.808594 114.613281 L 215.292969 120.667969 L 222.765625 117.367188 L 218.671875 124.453125 L 224.128906 130.5 L 216.152344 128.804688 Z M 212.058594 135.890625"/>
  <path fill="#fff" d="M 188.410156 125.359375 L 190.9375 117.578125 L 184.335938 112.785156 L 192.484375 112.792969 L 195.007812 105.007812 L 197.558594 112.769531 L 205.726562 112.796875 L 199.105469 117.605469 L 201.628906 125.347656 L 195.03125 120.554688 Z M 188.410156 125.359375"/>
  <path fill="#fff" d="M 171.089844 106.125 L 176.5625 100.042969 L 172.484375 92.980469 L 179.921875 96.296875 L 185.394531 90.214844 L 184.566406 98.34375 L 192.019531 101.691406 L 184.015625 103.390625 L 183.171875 111.488281 L 179.09375 104.425781 Z M 171.089844 106.125"/>
  <path fill="#fff" d="M 163.089844 81.507812 L 170.566406 78.175781 L 169.710938 70.066406 L 175.15625 76.121094 L 182.628906 72.792969 L 178.566406 79.878906 L 184.015625 85.96875 L 176.011719 84.265625 L 171.945312 91.324219 L 171.09375 83.210938 Z M 163.089844 81.507812"/>
  <path fill="#fff" d="M 165.796875 55.765625 L 173.980469 55.761719 L 176.5 48.003906 L 179.007812 55.753906 L 187.191406 55.75 L 180.597656 60.574219 L 183.097656 68.351562 L 176.480469 63.539062 L 169.894531 68.332031 L 172.414062 60.574219 Z M 165.796875 55.765625"/>
  <path fill="#fff" d="M 178.738281 33.347656 L 186.214844 36.671875 L 191.671875 30.609375 L 190.8125 38.710938 L 198.289062 42.035156 L 190.304688 43.761719 L 189.425781 51.882812 L 185.335938 44.792969 L 177.371094 46.496094 L 182.828125 40.433594 Z M 178.738281 33.347656"/>
  <path fill="#fff" d="M 199.679688 18.132812 L 205.15625 24.210938 L 212.609375 20.894531 L 208.53125 27.941406 L 214.007812 34.023438 L 206.011719 32.347656 L 201.902344 39.410156 L 201.050781 31.273438 L 193.082031 29.585938 L 200.53125 26.269531 Z M 199.679688 18.132812"/>
</svg>

<svg viewBox="0 0 300 150" xmlns="http://www.w3.org/2000/svg" xmlns:xlink="http://www.w3.org/1999/xlink"><defs><clipPath id="a"><path d="M0 0h150v75H0Z"/></clipPath><clipPath id="b"><use xlink:href="#e"/></clipPath><clipPath id="c"><path d="M0 0h200v100H0Z"/></clipPath><clipPath id="d"><use xlink:href="#e"/></clipPath><path id="e" d="M0 0v37.5h200V100Zm150 0H75v100H-50Z"/></defs><g fill="#012169"><path d="M0 0h300v150H0Z"/><path fill="#012169" stroke="#FFF" stroke-width=".6" d="M0-.001l6 3m-6 0l6-3" transform="scale(25)"/></g><g clip-path="url(#a)"><path clip-path="url(#b)" fill="#012169" d="M0 0l150 75M0 75L150 0"/></g><g clip-path="url(#c)"><g clip-path="url(#d)"><path fill="none" stroke="#C8102E" stroke-width=".4" d="M-.001 0l6 3m-6 0l6-3" transform="scale(25)"/></g></g><g fill="#012169" stroke="#FFF"><path d="M3 0v4M0 1.5h7" transform="scale(25)"/><path stroke="#C8102E" stroke-width=".6" d="M3-.001v4m-3-2.5h7" transform="scale(25)"/></g><path fill="#012169" d="M0 75h150V0h150v150H0Z"/><g fill="#FFF"><path d="M225 12.75l2.53 7.78h8.15l-6.6 4.78 2.53 7.78 -6.625-4.79 -6.625 4.78 2.53-7.79 -6.6-4.79h8.15Z"/><path d="M250.32 18.13l-.86 8.13 7.44 3.31 -7.97 1.68 -.86 8.13 -4.11-7.07 -8 1.67 5.47-6.09 -4.08-7.05 7.45 3.31Z"/><path d="M271.26 33.34l-4.09 7.08 5.45 6.06 -7.97-1.71 -4.09 7.08 -.88-8.13 -7.99-1.73 7.47-3.33 -.86-8.11 5.45 6.06Z"/><path d="M284.2 55.76l-6.62 4.8 2.51 7.75 -6.59-4.8 -6.62 4.81 2.5-7.78 -6.6-4.83 8.18 0 2.5-7.75 2.51 7.75Z"/><path d="M286.91 81.5l-8.01 1.7 -.86 8.11 -4.07-7.06 -8.01 1.7 5.44-6.09 -4.07-7.09 7.47 3.32 5.44-6.06 -.86 8.1Z"/><path d="M278.91 106.12l-8.01-1.7 -4.08 7.06 -.85-8.1 -8.01-1.7 7.45-3.35 -.83-8.13 5.47 6.08 7.43-3.32 -4.08 7.06Z"/><path d="M261.58 125.35l-6.63-4.81 -6.6 4.79 2.52-7.75 -6.63-4.81 8.16-.03 2.55-7.77 2.52 7.78 8.14-.01 -6.61 4.79Z"/><path d="M237.94 135.89l-4.1-7.09 -7.98 1.69 5.45-6.05 -4.1-7.09 7.47 3.3 5.48-6.06 -.86 8.13 7.44 3.3 -7.98 1.69Z"/><path d="M212.05 135.89l-.86-8.14 -7.98-1.7 7.44-3.31 -.86-8.14 5.48 6.05 7.47-3.31 -4.1 7.08 5.45 6.04 -7.98-1.7Z"/><path d="M188.41 125.35l2.52-7.79 -6.61-4.8 8.14 0 2.52-7.79 2.55 7.76 8.16.02 -6.63 4.8 2.52 7.74 -6.6-4.8Z"/><path d="M171.08 106.12l5.47-6.09 -4.08-7.07 7.43 3.31 5.47-6.09 -.83 8.12 7.45 3.34 -8.01 1.69 -.85 8.09 -4.08-7.07Z"/><path d="M163.08 81.5l7.47-3.34 -.86-8.11 5.44 6.05 7.47-3.33 -4.07 7.08 5.44 6.08 -8.01-1.71 -4.07 7.05 -.86-8.12Z"/><path d="M165.79 55.76l8.18-.01 2.51-7.76 2.5 7.75 8.18-.01 -6.6 4.82 2.5 7.77 -6.62-4.82 -6.59 4.79 2.51-7.76Z"/><path d="M178.73 33.34l7.47 3.32 5.45-6.07 -.86 8.1 7.47 3.32 -7.99 1.72 -.88 8.12 -4.09-7.09 -7.97 1.7 5.45-6.07Z"/><path d="M199.67 18.13l5.47 6.07 7.45-3.32 -4.08 7.04 5.47 6.08 -8-1.68 -4.11 7.06 -.86-8.14 -7.97-1.69 7.44-3.32Z"/></g></svg>
